src/icons/cpanel.svg

<?xml version="1.0" encoding="UTF-8" standalone="no"?>
<!-- Uploaded to: SVG Repo, www.svgrepo.com, Generator: SVG Repo Mixer Tools -->
<svg width="800px" height="800px" viewBox="0 -199 512 512" version="1.1" xmlns="http://www.w3.org/2000/svg" xmlns:xlink="http://www.w3.org/1999/xlink" preserveAspectRatio="xMidYMid">
    <g>
        <path d="M42.3274312,27.8902687 L74.3231185,27.8902687 L69.3679611,46.8614427 C68.6110019,49.5051372 67.1952426,51.6287761 65.1206834,53.2323594 C63.0437645,54.8387742 60.6365019,55.6396221 57.9007831,55.6396221 L43.0353108,55.6396221 C39.6370167,55.6396221 36.6393824,56.6301816 34.0447676,58.6127165 C31.4473213,60.5947795 29.631846,63.2842502 28.5936225,66.6820724 C27.9329349,69.230911 27.8621469,71.6377017 28.3817306,73.9024446 C28.8998985,76.1681313 29.8196701,78.1747341 31.1424611,79.9194215 C32.4633645,81.6669403 34.1618037,83.0586317 36.2396664,84.0968551 C38.3142256,85.1364943 40.5799123,85.6532465 43.0353108,85.6532465 L52.0956982,85.6532465 C53.7946093,85.6532465 55.1863006,86.3394178 56.272188,87.7060974 C57.3561877,89.0756085 57.6638793,90.6084039 57.1929034,92.307315 L51.5298664,113.260552 L41.6195516,113.260552 C34.8239071,113.260552 28.5700265,111.774005 22.8607414,108.801382 C17.1486247,105.827816 12.4058312,101.888702 8.63236081,96.9793205 C4.85605894,92.0732428 2.28315244,86.4809937 0.916472838,80.2035171 C-0.453038286,73.9274563 -0.287394452,67.4852798 1.41151666,60.8774594 L1.97829228,58.7538205 C3.20339596,54.2238628 5.11467096,50.0469011 7.71117345,46.224823 C10.3067321,42.4018011 13.3742105,39.1460267 16.9136086,36.4556122 C20.4530068,33.7656696 24.3935367,31.6665705 28.7356704,30.1559554 C33.0759163,28.6472279 37.606346,27.8902687 42.3274312,27.8902687 Z M58.4658126,113.260741 L86.35627,8.77770741 C87.1099258,6.13637255 88.5256851,4.01273366 90.6035478,2.40679074 C92.678107,0.8027355 95.0848978,0 97.82392,0 L127.413289,0 C134.208933,0 140.459982,1.48654722 146.172099,4.45964167 C151.880912,7.43273611 156.624177,11.3751537 160.400479,16.2812315 C164.17395,21.1896688 166.771396,26.7823898 168.187155,33.0579787 C169.602914,39.3363991 169.412259,45.7776318 167.62038,52.3830926 L167.054548,54.5067315 C165.826613,59.0371611 163.939877,63.213651 161.391511,67.036201 C158.842672,70.858751 155.799262,74.1395371 152.259864,76.8757278 C148.720465,79.6142781 144.778048,81.737917 140.437802,83.2466445 C136.095668,84.7577315 131.565239,85.5123312 126.846985,85.5123312 L101.221742,85.5123312 L106.318476,66.3991093 C107.072603,63.8507426 108.488363,61.7757115 110.565753,60.1697685 C112.640784,58.5661852 115.047103,57.7629778 117.785654,57.7629778 L125.997529,57.7629778 C129.39488,57.7629778 132.439234,56.7252263 135.128705,54.6483074 C137.819119,52.5732763 139.588818,49.8833337 140.437802,46.5784797 C141.097074,44.2202966 141.167862,41.9064741 140.650638,39.6412593 C140.131054,37.3760445 139.210339,35.3718013 137.889435,33.6242824 C136.566644,31.8791232 134.867733,30.4633639 132.793174,29.3770046 C130.715783,28.293005 128.45104,27.7488815 125.997529,27.7488815 L110.141026,27.7488815 L89.4704684,104.625081 C88.7139811,107.172976 87.2982218,109.250367 85.2231907,110.85395 C83.1467438,112.459893 80.7862011,113.260741 78.1443944,113.260741 L58.4658126,113.260741 Z M235.008963,57.4797316 L235.433691,55.9223964 C235.621987,55.1682686 235.504951,54.531177 235.079751,54.0111214 C234.655023,53.4938973 234.065124,53.2324538 233.310052,53.2324538 L187.297876,53.2324538 C185.316285,53.2324538 183.521574,52.8081979 181.917991,51.9582705 C180.31252,51.1088149 178.991616,50.0002754 177.954809,48.6312362 C176.914698,47.2645566 176.206818,45.6826816 175.83117,43.8884427 C175.452218,42.0965634 175.498938,40.2560763 175.971802,38.3669816 L178.80332,27.6072112 L241.096728,27.6072112 C244.96647,27.6072112 248.505868,28.4566667 251.714922,30.1560498 C254.922561,31.854489 257.591267,34.0729837 259.714906,36.8096464 C261.838545,39.5481967 263.30008,42.6850473 264.102816,46.2244455 C264.904136,49.7638436 264.832876,53.4226375 263.890924,57.1965797 L252.705954,98.8203739 C251.57429,103.067652 249.284536,106.51361 245.839993,109.155416 C242.393563,111.799111 238.453505,113.119542 234.017932,113.119542 L188.005756,112.977966 C183.946774,112.977966 180.21908,112.105859 176.821729,110.35834 C173.423435,108.613653 170.639109,106.301718 168.468278,103.421591 C166.296503,100.543825 164.787776,97.2403865 163.937848,93.5112767 C163.089336,89.7835825 163.184192,85.9851004 164.221,82.1139427 L164.787776,79.9903038 C165.447048,77.3494409 166.557475,74.8940424 168.114338,72.6288276 C169.672145,70.3631408 171.48762,68.4296856 173.565483,66.8237427 C175.640042,65.2196874 177.954809,63.9700439 180.502232,63.0724526 C183.050598,62.176277 185.741485,61.7270094 188.573003,61.7270094 L227.222287,61.7270094 L224.390769,72.3456757 C223.634753,74.8940424 222.218994,76.9709612 220.143491,78.5745445 C218.067044,80.1809594 215.706501,80.9813353 213.064695,80.9813353 L195.792432,80.9813353 C194.186961,80.9813353 193.149209,81.7850146 192.678233,83.3885979 C192.395081,84.4282372 192.583377,85.3484807 193.244065,86.1493285 C193.903809,86.952064 194.752792,87.352252 195.792432,87.352252 L223.682889,87.352252 C224.72064,87.352252 225.616816,87.0691001 226.373303,86.5032683 C227.127431,85.9364927 227.598407,85.1823649 227.789063,84.2375816 L228.072215,83.1049742 L235.008963,57.4797316 Z M317.40686,27.8902687 C324.294057,27.8902687 330.594657,29.3768159 336.30583,32.3499103 C342.016531,35.3230048 346.757909,39.2654224 350.535155,44.1715001 C354.308625,49.0804094 356.882003,54.6971983 358.250099,61.0190353 C359.617722,67.3437039 359.40583,73.8104203 357.613951,80.4154091 L350.535155,107.031683 C350.061347,108.920306 349.047664,110.429034 347.491744,111.562113 C345.933937,112.69472 344.210486,113.260552 342.322807,113.260552 L327.033079,113.260552 C325.239784,113.260552 323.824025,112.577684 322.785801,111.208173 C321.746162,109.841021 321.462538,108.305395 321.936346,106.606955 L330.430901,74.4692202 C331.090645,72.1105653 331.160961,69.7972147 330.642793,67.5315279 C330.122738,65.2663131 329.202966,63.2620699 327.883006,61.5145511 C326.559743,59.7693918 324.861776,58.3536326 322.785801,57.2672733 C320.70841,56.1832736 318.442724,55.6396221 315.991101,55.6396221 L300.133653,55.6396221 L286.400316,107.031683 C285.928397,108.920306 284.914241,110.429034 283.356906,111.562113 C281.799099,112.69472 280.0294,113.260552 278.047809,113.260552 L262.899184,113.260552 C261.200273,113.260552 259.806694,112.577684 258.722695,111.208173 C257.639167,109.841021 257.331003,108.305395 257.801979,106.606955 L278.755688,27.8902687 L317.40686,27.8902687 Z M400.792862,54.8606713 C399.661199,55.7587346 398.857047,56.9135223 398.386071,58.3292815 L392.015155,82.3971889 C391.637619,83.7204519 391.874523,84.9455556 392.723034,86.078163 C393.572962,87.2112423 394.706041,87.7770741 396.121801,87.7770741 L454.733762,87.7770741 L450.203332,104.625081 C449.446845,107.172976 448.031086,109.250367 445.956055,110.85395 C443.878664,112.459893 441.518121,113.260741 438.877258,113.260741 L385.503606,113.260741 C381.631976,113.260741 378.092578,112.435825 374.885412,110.783162 C371.674942,109.133331 369.009067,106.914836 366.885428,104.129094 C364.761789,101.346655 363.297422,98.1833766 362.497518,94.6439784 C361.696198,91.1045803 361.813234,87.4939223 362.851458,83.8129482 L371.486646,51.675213 C372.429541,48.1848945 373.893436,44.9748963 375.875971,42.04805 C377.857562,39.1235633 380.194509,36.6219167 382.88398,34.5445259 C385.57345,32.4694948 388.592793,30.8418436 391.944367,29.6601565 C395.294053,28.481301 398.762192,27.8904574 402.350669,27.8904574 L440.15097,27.8904574 C444.020712,27.8904574 447.56011,28.739913 450.769164,30.4388241 C453.976803,32.1377352 456.645509,34.3567019 458.769148,37.0928926 C460.892787,39.8314429 462.330254,42.9928334 463.08627,46.5784797 C463.841341,50.1664855 463.746013,53.7988519 462.803118,57.479826 L460.254751,67.1069889 C459.123088,71.3547386 456.833333,74.7761568 453.388791,77.3717155 C449.942361,79.968218 446.049023,81.2650534 441.708777,81.2650534 L398.953319,81.2650534 L401.784838,70.787963 C402.443638,68.2395963 403.812205,66.1645652 405.890067,64.5586223 C407.964627,62.954567 410.371417,62.1518315 413.110912,62.1518315 L430.382703,62.1518315 C431.986758,62.1518315 433.023566,61.3509837 433.497373,59.7450408 L434.063205,57.6214019 C434.347301,56.5836503 434.156173,55.6393389 433.497373,54.7898834 C432.83527,53.9404278 431.986758,53.5157 430.948534,53.5157 L404.616356,53.5157 C403.200597,53.5157 401.92547,53.9649676 400.792862,54.8606713 Z M454.589874,113.260741 L483.046163,6.37091667 C483.517139,4.4841815 484.53271,2.95091422 486.090517,1.76969907 C487.64738,0.590843531 489.41708,0 491.399614,0 L506.548238,0 C508.339646,0 509.779473,0.685699402 510.866304,2.05285093 C511.950304,3.42236205 512.257052,4.95515741 511.786076,6.65406852 L490.549687,85.5123312 C489.510048,89.6666408 487.835204,93.4401112 485.523742,96.8384053 C483.209919,100.235756 480.473728,103.138534 477.311866,105.544853 C474.148588,107.951644 470.634201,109.84121 466.764931,111.20789 C462.893774,112.577873 458.837151,113.260741 454.589874,113.260741 Z" fill="#FF6C2C">
</path>
    </g>
</svg>

<svg xmlns="http://www.w3.org/2000/svg" width="4.5em" height="1em" viewBox="0 0 512 114"><path fill="#ff6c2c" d="M42.327 27.89h31.996l-4.955 18.971q-1.136 3.966-4.247 6.371q-3.116 2.41-7.22 2.408H43.035q-5.098 0-8.99 2.973q-3.895 2.972-5.451 8.07q-.992 3.822-.212 7.22q.777 3.399 2.76 6.016q1.981 2.622 5.098 4.178c2.074 1.04 4.34 1.556 6.795 1.556h9.06q2.549.001 4.177 2.053q1.627 2.054.92 4.601l-5.662 20.954h-9.91q-10.194 0-18.76-4.46q-8.567-4.458-14.228-11.822Q2.967 89.62.916 80.204q-2.053-9.415.496-19.327l.566-2.123a41.3 41.3 0 0 1 5.733-12.53q3.893-5.733 9.203-9.768t11.822-6.3q6.51-2.265 13.591-2.266m16.139 85.37L86.356 8.779q1.131-3.962 4.248-6.371Q93.714 0 97.824 0h29.59q10.191 0 18.758 4.46q8.564 4.46 14.228 11.821q5.662 7.363 7.787 16.777q2.123 9.417-.567 19.325l-.565 2.124q-1.841 6.795-5.663 12.53q-3.824 5.734-9.132 9.839q-5.311 4.108-11.822 6.37q-6.513 2.267-13.591 2.266h-25.625l5.096-19.113q1.132-3.82 4.248-6.23q3.112-2.405 7.22-2.406h8.212q5.096 0 9.13-3.115q4.036-3.113 5.31-8.07q.99-3.538.213-6.937q-.78-3.397-2.762-6.017q-1.983-2.617-5.096-4.247q-3.116-1.627-6.795-1.628H110.14l-20.67 76.876q-1.136 3.822-4.248 6.229q-3.115 2.408-7.079 2.407zm176.543-55.78l.425-1.558q.283-1.13-.354-1.91q-.638-.779-1.77-.78h-46.012q-2.974 0-5.38-1.274q-2.407-1.274-3.963-3.327q-1.56-2.05-2.124-4.743q-.568-2.687.14-5.521l2.832-10.76h62.294q5.805 0 10.618 2.549t8 6.654q3.185 4.106 4.388 9.414q1.201 5.311-.212 10.973L252.706 98.82q-1.698 6.373-6.866 10.335q-5.168 3.966-11.822 3.965l-46.012-.142q-6.09.001-11.184-2.62q-5.098-2.616-8.354-6.936q-3.256-4.317-4.53-9.91q-1.273-5.592.283-11.398l.567-2.124q.99-3.962 3.326-7.361t5.451-5.805a24.7 24.7 0 0 1 6.937-3.752q3.824-1.344 8.071-1.345h38.65l-2.832 10.619q-1.134 3.822-4.248 6.229t-7.078 2.406h-17.273q-2.407.001-3.114 2.408q-.425 1.56.566 2.76q.99 1.204 2.548 1.203h27.89q1.558 0 2.691-.849q1.13-.849 1.416-2.265l.283-1.133zm82.398-29.59q10.332 0 18.899 4.46q8.564 4.46 14.23 11.822q5.66 7.363 7.714 16.847q2.052 9.488-.636 19.396l-7.079 26.617q-.71 2.831-3.043 4.53q-2.337 1.7-5.17 1.699h-15.289q-2.69.001-4.247-2.053q-1.56-2.052-.85-4.601l8.495-32.138q.99-3.538.212-6.937q-.78-3.398-2.76-6.017q-1.984-2.618-5.097-4.248q-3.117-1.626-6.795-1.627h-15.857L286.4 107.032q-.708 2.831-3.043 4.53q-2.337 1.7-5.31 1.699H262.9q-2.55.001-4.176-2.053q-1.627-2.052-.921-4.601l20.954-78.717zm83.386 26.97q-1.7 1.347-2.407 3.47l-6.37 24.067q-.566 1.984.707 3.681q1.275 1.7 3.399 1.7h58.612l-4.53 16.847q-1.136 3.822-4.248 6.229q-3.116 2.408-7.079 2.407h-53.373q-5.808 0-10.619-2.478q-4.814-2.475-8-6.654q-3.186-4.175-4.387-9.485q-1.203-5.31.353-10.831l8.636-32.138q1.414-5.236 4.389-9.627q2.974-4.387 7.008-7.503q4.034-3.113 9.06-4.885a31.1 31.1 0 0 1 10.407-1.77h37.8q5.805 0 10.618 2.549t8 6.654q3.184 4.107 4.317 9.485q1.132 5.38-.283 10.902l-2.548 9.627q-1.699 6.372-6.866 10.265q-5.17 3.894-11.68 3.893h-42.756l2.832-10.477q.988-3.82 4.105-6.23q3.112-2.405 7.22-2.406h17.273q2.404.001 3.114-2.407l.566-2.124q.424-1.556-.566-2.831q-.992-1.275-2.548-1.274h-26.333q-2.123 0-3.823 1.345m53.797 58.4L483.046 6.37q.707-2.83 3.045-4.6Q488.425 0 491.4 0h15.148q2.688.001 4.318 2.053q1.626 2.054.92 4.601L490.55 85.512q-1.56 6.23-5.026 11.326q-3.47 5.097-8.212 8.707q-4.744 3.611-10.547 5.663q-5.805 2.054-12.175 2.053"/></svg>
